!!!OTL: Das Pfaffenlied
!!!ARE: Europa, Mitteleuropa, Deutschland
!!!SCT: A0476
!!!YEM: Copyright 1995, estate of Helmut Schaffrath.
**kern
*ICvox
*Ivox
!! Mixed meters:  4/4; 6/4
*M4/4
*k[f#]
*G:
{4g
=1
4g
4g
4g
4g
=2
4a
4a
4a}
{4g
=3
4b
4cc
4dd
4b
=4
2a
4g}
{4g
=5
4g
4g
4g
4g
=6
4a
4a
4a}
{4g
=7
4b
4cc
4dd
4b
=8
2a
4g}
{4g
=9
4dd
4dd
4dd
4cc
=10
*M6/4
8dd
8cc
4b
2a
4r}
{4a
=11
*M4/4
4b
4b
8b
8cc
4dd
=12
4b
4cc
2g}
=13
{4r
4g
4a
4g
=14
2cc
4r}
{4ee
=15
4dd
4cc
8dd
8g
4a
=16
2g
4r}
==
!!!AGN: Romanze, Ballade, Lied
!! Fliegendes Blatt um 1582.
!!!ONB: ESAC (Essen Associative Code) Database: ALTDEU
!!!AMT: irregular
!!!AIN: vox
!!!EED: Helmut Schaffrath
!!!EEV: 1.0
*-
